azure-patterns/svg-book-open-alt.svg

<svg xmlns="http://www.w3.org/2000/svg" viewBox="0 0 34 26">
                                
                            
    <g stroke="none" stroke-width="1" fill="none" fill-rule="evenodd">
        <path d="M17.0186,3.4228 C17.0186,3.4228 14.5966,1.3888 11.2616,0.9528 C7.9276,0.5188 2.3456,1.4608 2.3456,1.4608 L2.2016,22.4458 L32.7556,23.0998 L31.9216,1.7148 C31.9216,1.7148 27.6806,0.1558 24.3466,0.7728 C21.0116,1.3888 17.0186,3.4228 17.0186,3.4228" fill="#FFFFFF"></path>
        <path d="M27.1855,20.6299 C23.8765,20.6299 20.3845,21.3519 18.3305,22.2999 C17.8965,22.4999 17.4715,22.7359 17.2075,23.0589 L17.2075,15.2219 L17.6285,15.5949 L17.6285,4.1559 C19.0845,2.3839 22.6975,1.0419 26.1345,1.0029 C28.2005,0.9799 30.0085,1.2809 31.3895,1.8339 L31.4625,21.4609 C30.4105,21.0379 29.0005,20.6299 27.1855,20.6299 Z M16.7285,23.0459 C15.4855,21.8969 10.9375,20.7759 6.8505,20.7759 C5.0355,20.7759 3.6255,21.1169 2.5735,21.5099 L2.5735,1.8159 C3.9325,1.2719 5.6985,0.9559 7.7305,0.9789 C11.1135,1.0179 14.8285,2.2659 16.2605,4.0099 L16.2605,15.5949 L16.7285,15.1939 L16.7285,23.0459 Z M32.3915,3.3009 L32.3915,1.7369 C32.3915,1.4699 32.2335,1.2279 31.9885,1.1209 L31.5375,0.9249 C30.1565,0.3719 28.2005,-0.0231 26.1345,0.0009 C22.0535,0.0499 18.4735,1.6509 17.0185,3.4229 L16.7735,3.1539 C15.1125,1.1499 11.1135,0.0389 7.7305,0.0009 C5.9035,-0.0191 3.6015,0.4459 2.1675,0.9359 C1.8965,1.0279 1.7175,1.2839 1.7175,1.5699 L1.7175,3.1539 C1.7175,3.1539 0.2885,3.1909 0.0065,4.0339 C-0.0085,4.0799 0.0065,24.3199 0.0065,24.3199 L14.8515,24.3199 C15.3115,24.8809 16.0805,25.2489 16.9525,25.2489 C17.8235,25.2489 18.5915,24.8809 19.0515,24.3199 L33.6875,24.3199 L33.6875,4.1319 C33.6875,3.7899 33.2475,3.3739 32.3915,3.3009 Z" fill="#0078D4"></path>
        <polygon fill="#0078D4" points="16.2598 2.625 17.6378 2.768 17.6288 15.595 16.9588 15.009 16.2608 15.595"></polygon>
    </g>
</svg>

<svg xmlns="http://www.w3.org/2000/svg" viewBox="0 0 34 26"><g fill="none" fill-rule="evenodd"><path d="M17.019 3.423s-2.422-2.034-5.757-2.47c-3.334-.434-8.916.508-8.916.508l-.144 20.985 30.554.654-.834-21.385S27.68.155 24.347.773c-3.335.616-7.328 2.65-7.328 2.65" fill="#FFF"/><path d="M27.186 20.63c-3.31 0-6.802.722-8.855 1.67-.434.2-.86.436-1.123.759v-7.837l.42.373V4.155c1.456-1.771 5.07-3.113 8.506-3.152 2.067-.023 3.875.278 5.256.83l.072 19.628a11.243 11.243 0 0 0-4.276-.831zm-10.457 2.416c-1.243-1.15-5.791-2.27-9.878-2.27-1.816 0-3.225.34-4.277.734V1.816C3.933 1.272 5.699.956 7.73.979c3.383.039 7.098 1.287 8.53 3.03v11.586l.468-.401v7.852zM32.392 3.3V1.737a.672.672 0 0 0-.404-.616l-.45-.196C30.157.372 28.2-.023 26.134 0c-4.08.049-7.66 1.65-9.116 3.422l-.245-.27C15.113 1.15 11.113.04 7.73.002 5.903-.02 3.601.446 2.167.936a.667.667 0 0 0-.45.634v1.584s-1.429.037-1.71.88c-.015.046 0 20.286 0 20.286H14.85c.46.56 1.23.929 2.101.929s1.64-.368 2.1-.93h14.636V4.133c0-.342-.44-.758-1.297-.831z" fill="#0078D4"/><path fill="#0078D4" d="M16.26 2.625l1.378.143-.01 12.827-.67-.586-.697.586z"/></g></svg>
